assets/images/all-projects/ipopat.svg

<svg width="153" height="69" viewBox="0 0 153 69" fill="none" xmlns="http://www.w3.org/2000/svg">
<path d="M88.6465 2.5512C84.6436 0.859168 80.3934 0 76.0116 0C71.6299 0 67.3796 0.859168 63.3765 2.5512C59.5103 4.18713 56.0404 6.52616 53.0594 9.50694C50.959 11.6075 49.1758 13.9536 47.7344 16.5083H52.2932C53.3172 14.9881 54.4902 13.5661 55.8053 12.2528C58.4303 9.62792 61.4863 7.56593 64.8899 6.12814C68.4123 4.63774 72.1541 3.88205 76.0132 3.88205C79.8726 3.88205 83.6144 4.63774 87.1369 6.12814C90.5402 7.56768 93.5965 9.62792 96.2212 12.2528C97.5347 13.5661 98.7077 14.9898 99.7317 16.5083H104.29C102.849 13.9536 101.066 11.6093 98.9654 9.50694C95.9844 6.52616 92.513 4.18538 88.6484 2.5512H88.6465Z" fill="#BCBCBC"/>
<path d="M53.1509 24.4037L51.1029 20.5234H0L2.04973 24.4037H53.1509Z" fill="#BCBCBC"/>
<path d="M12.2266 43.6777L14.3464 47.6929H51.0906L53.2107 43.6777H12.2266Z" fill="#BCBCBC"/>
<path d="M10.2433 39.9308H55.1864L57.2345 36.0488H8.19531L10.2433 39.9308Z" fill="#BCBCBC"/>
<path d="M55.1302 28.1543H4.02734L6.14896 32.1697H57.25L55.1302 28.1543Z" fill="#BCBCBC"/>
<path d="M149.97 24.4037L152.02 20.5234H100.936L98.8867 24.4037H149.97Z" fill="#BCBCBC"/>
<path d="M98.8086 43.6777L100.928 47.6929H137.673L139.792 43.6777H98.8086Z" fill="#BCBCBC"/>
<path d="M96.8312 39.9308H141.774L143.822 36.0488H94.7812L96.8312 39.9308Z" fill="#BCBCBC"/>
<path d="M94.7891 32.1983H145.873L147.994 28.127H96.9089L94.7891 32.1983Z" fill="#BCBCBC"/>
<path d="M92.2702 47.6924H96.6362L75.9811 8.69336L55.3945 47.6924H59.7815L64.9014 37.9927H87.0628L92.2722 47.6924H92.2702ZM75.9795 16.9273L85.0008 34.1107H67.0826L75.9795 16.9273Z" fill="#BCBCBC"/>
<path d="M105.182 51.709C109.78 51.709 113.507 55.4359 113.507 60.0332C113.507 64.6306 109.78 68.3574 105.182 68.3574H46.8408C42.2432 68.3573 38.5158 64.6305 38.5156 60.0332C38.5156 55.436 42.2431 51.7091 46.8408 51.709H105.182ZM72.5732 55.873C71.4201 55.8732 70.3663 56.2941 69.6055 57.0566C68.8446 57.8192 68.427 58.8751 68.4268 60.0303C68.4268 61.1856 68.8466 62.2419 69.6055 63.0049C70.3663 63.7673 71.4201 64.1873 72.5732 64.1875V64.1846C73.7288 64.1846 74.7828 63.7669 75.542 63.0059C76.3029 62.2448 76.7206 61.1879 76.7207 60.0293C76.7206 58.8704 76.3011 57.8127 75.542 57.0518C74.7829 56.2928 73.7269 55.873 72.5732 55.873ZM48.3311 56.0791V63.9629H49.9795L50.0586 63.8525L53.8369 58.2363V63.9805H55.2412L55.2402 63.9785V56.0791H53.5967L53.5254 56.1895L49.7461 61.8057V56.0791H48.3311ZM58.8779 56.0879V63.9766H60.3154V57.5781H63.915V63.9766H65.3545V56.0879H58.8779ZM79.7363 56.0879V63.9766H81.1689V57.5781H84.7754V63.9766H86.208V56.0879H79.7363ZM98.2197 56.0898V57.3135L98.2246 57.3438V57.5791H100.785V63.9766H102.223V57.5801H104.783V56.0898H98.2197ZM92.2666 56.0898L92.2012 56.2461L89.0098 63.5977L88.8486 63.9727H90.3779L91.2666 61.8779H94.3877L95.1738 63.8174L95.2451 63.9727H96.7598L96.6182 63.5996L93.6289 56.2529L93.5635 56.0898H92.2666ZM72.5791 57.2441C74.1184 57.2443 75.2351 58.4177 75.2354 60.0322C75.2354 61.647 74.1186 62.8202 72.5791 62.8203C71.04 62.8201 69.9229 61.647 69.9229 60.0322C69.9231 58.4177 71.0401 57.2443 72.5791 57.2441ZM93.79 60.3838H91.9033L92.8711 58.1504L93.79 60.3838Z" fill="#BCBCBC"/>
</svg>

<?xml version="1.0" encoding="UTF-8"?>
<svg id="Layer_1" xmlns="http://www.w3.org/2000/svg" version="1.1" viewBox="0 0 153 69">
  <!-- Generator: Adobe Illustrator 29.8.4, SVG Export Plug-In . SVG Version: 2.1.1 Build 6)  -->
  <defs>
    <style>
      .st0 {
        fill: #bcbcbc;
      }
    </style>
  </defs>
  <path class="st0" d="M88.65,2.55C84.64.86,80.39,0,76.01,0s-8.63.86-12.64,2.55c-3.87,1.64-7.34,3.97-10.32,6.96-2.1,2.1-3.88,4.45-5.32,7h4.56c1.02-1.52,2.2-2.94,3.51-4.26,2.62-2.62,5.68-4.69,9.08-6.12,3.52-1.49,7.26-2.25,11.12-2.25s7.6.76,11.12,2.25c3.4,1.44,6.46,3.5,9.08,6.12,1.31,1.31,2.49,2.74,3.51,4.26h4.56c-1.44-2.55-3.22-4.9-5.32-7-2.98-2.98-6.45-5.32-10.32-6.96h0Z"/>
  <path class="st0" d="M53.15,24.4l-2.05-3.88H0l2.05,3.88h51.1Z"/>
  <path class="st0" d="M12.23,43.68l2.12,4.02h36.74l2.12-4.02H12.23Z"/>
  <path class="st0" d="M10.24,39.93h44.94l2.05-3.88H8.2l2.05,3.88Z"/>
  <path class="st0" d="M55.13,28.15H4.03l2.12,4.02h51.1l-2.12-4.02Z"/>
  <path class="st0" d="M149.97,24.4l2.05-3.88h-51.08l-2.05,3.88h51.08Z"/>
  <path class="st0" d="M98.81,43.68l2.12,4.02h36.75l2.12-4.02h-40.98Z"/>
  <path class="st0" d="M96.83,39.93h44.94l2.05-3.88h-49.04l2.05,3.88Z"/>
  <path class="st0" d="M94.79,32.2h51.08l2.12-4.07h-51.09l-2.12,4.07Z"/>
  <path class="st0" d="M92.27,47.69h4.37l-20.66-39-20.59,39h4.39l5.12-9.7h22.16l5.21,9.7h0ZM75.98,16.93l9.02,17.18h-17.92l8.9-17.18Z"/>
  <path class="st0" d="M105.18,51.71c4.6,0,8.33,3.73,8.33,8.32s-3.73,8.32-8.33,8.32h-58.34c-4.6,0-8.33-3.73-8.33-8.32,0-4.6,3.73-8.32,8.33-8.32h58.34ZM72.57,55.87c-1.15,0-2.21.42-2.97,1.18-.76.76-1.18,1.82-1.18,2.97,0,1.16.42,2.21,1.18,2.97.76.76,1.81,1.18,2.97,1.18h0c1.16,0,2.21-.42,2.97-1.18.76-.76,1.18-1.82,1.18-2.98,0-1.16-.42-2.22-1.18-2.98-.76-.76-1.82-1.18-2.97-1.18ZM48.33,56.08v7.88h1.65l.08-.11,3.78-5.62v5.74h1.4,0v-7.9h-1.64l-.07.11-3.78,5.62v-5.73h-1.42ZM58.88,56.09v7.89h1.44v-6.4h3.6v6.4h1.44v-7.89h-6.48ZM79.74,56.09v7.89h1.43v-6.4h3.61v6.4h1.43v-7.89h-6.47ZM98.22,56.09v1.25s0,.24,0,.24h2.56v6.4h1.44v-6.4h2.56v-1.49h-6.56ZM92.27,56.09l-.07.16-3.19,7.35-.16.38h1.53l.89-2.09h3.12l.79,1.94.07.16h1.51l-.14-.37-2.99-7.35-.07-.16h-1.3ZM72.58,57.24c1.54,0,2.66,1.17,2.66,2.79,0,1.61-1.12,2.79-2.66,2.79-1.54,0-2.66-1.17-2.66-2.79,0-1.61,1.12-2.79,2.66-2.79ZM93.79,60.38h-1.89l.97-2.23.92,2.23Z"/>
</svg>
